src/assets/duotone/FormatSquare.svg

<?xml version="1.0" encoding="UTF-8"?>
<svg width="24" height="24" viewBox="0 0 24 24" xmlns="http://www.w3.org/2000/svg">
 <path d="m16.31 20.15c-0.04-0.22-0.06-0.43-0.06-0.65 0-0.09 0-0.17 0.01-0.25h-8.52c0.01 0.08 0.01 0.16 0.01 0.25 0 0.22-0.02 0.43-0.06 0.64s-0.11 0.42-0.19 0.61h9c-0.09-0.19-0.15-0.39-0.19-0.6zm-12.45-12.46c-0.21-0.04-0.42-0.11-0.61-0.19v9c0.19-0.09 0.39-0.15 0.6-0.19 0.22-0.04 0.43-0.06 0.65-0.06 0.09 0 0.17 0 0.25 0.01v-8.52c-0.08 0.01-0.16 0.01-0.25 0.01-0.22 0-0.43-0.02-0.64-0.06zm16.29 0c-0.22 0.04-0.43 0.06-0.65 0.06-0.09 0-0.17 0-0.25-0.01v8.52c0.08-0.01 0.16-0.01 0.25-0.01 0.22 0 0.43 0.02 0.64 0.06s0.42 0.11 0.61 0.19v-9c-0.19 0.09-0.39 0.15-0.6 0.19zm-3.65-4.44h-9c0.09 0.19 0.15 0.39 0.19 0.6 0.04 0.22 0.06 0.43 0.06 0.65 0 0.09 0 0.17-0.01 0.25h8.52c-0.01-0.08-0.01-0.16-0.01-0.25 0-0.22 0.02-0.43 0.06-0.64s0.11-0.42 0.19-0.61z" opacity=".4"/>
 <path d="m7.75 4.5c0 0.09 0 0.17-0.01 0.25-0.02 0.26-0.07 0.5-0.15 0.74-0.02 0.09-0.06 0.19-0.1 0.28-0.02 0.05-0.05 0.11-0.08 0.17s-0.06 0.12-0.1 0.18c-0.28 0.5-0.69 0.91-1.19 1.19-0.06 0.04-0.12 0.07-0.18 0.1s-0.12 0.06-0.17 0.08c-0.09 0.04-0.19 0.08-0.28 0.1-0.24 0.08-0.48 0.13-0.74 0.15-0.08 0.01-0.16 0.01-0.25 0.01-0.22 0-0.43-0.02-0.64-0.06s-0.42-0.11-0.61-0.19c-1.19-0.5-2-1.68-2-3 0-1.79 1.46-3.25 3.25-3.25 1.33 0 2.5 0.81 3 2 0.09 0.19 0.15 0.39 0.19 0.6 0.04 0.22 0.06 0.43 0.06 0.65z"/>
 <path d="m22.75 4.5c0 1.33-0.81 2.5-2 3-0.19 0.09-0.39 0.15-0.6 0.19-0.22 0.04-0.43 0.06-0.65 0.06-0.09 0-0.17 0-0.25-0.01-0.27-0.02-0.52-0.07-0.77-0.16-0.08-0.02-0.17-0.05-0.25-0.09-0.06-0.02-0.11-0.05-0.17-0.08s-0.12-0.06-0.18-0.1c-0.5-0.28-0.91-0.69-1.19-1.19-0.04-0.06-0.07-0.12-0.1-0.18s-0.06-0.11-0.08-0.17c-0.04-0.08-0.07-0.17-0.09-0.25-0.09-0.25-0.14-0.5-0.16-0.77-0.01-0.08-0.01-0.16-0.01-0.25 0-0.22 0.02-0.43 0.06-0.64s0.11-0.42 0.19-0.61c0.5-1.19 1.68-2 3-2 1.79 0 3.25 1.46 3.25 3.25z"/>
 <path d="m7.75 19.5c0 0.22-0.02 0.43-0.06 0.64s-0.11 0.42-0.19 0.61c-0.5 1.19-1.68 2-3 2-1.79 0-3.25-1.46-3.25-3.25 0-1.33 0.81-2.5 2-3 0.19-0.09 0.39-0.15 0.6-0.19 0.22-0.04 0.43-0.06 0.65-0.06 0.09 0 0.17 0 0.25 0.01 0.25 0.02 0.49 0.07 0.72 0.14 0.08 0.02 0.17 0.05 0.25 0.09 0.07 0.03 0.14 0.06 0.22 0.1 0.06 0.03 0.12 0.06 0.18 0.1 0.5 0.28 0.91 0.69 1.19 1.19 0.04 0.06 0.07 0.12 0.1 0.18 0.04 0.08 0.07 0.15 0.1 0.22 0.04 0.08 0.07 0.17 0.09 0.25 0.07 0.23 0.12 0.47 0.14 0.72 0.01 0.08 0.01 0.16 0.01 0.25z"/>
 <path d="m22.75 19.5c0 1.79-1.46 3.25-3.25 3.25-1.33 0-2.5-0.81-3-2-0.09-0.19-0.15-0.39-0.19-0.6-0.04-0.22-0.06-0.43-0.06-0.65 0-0.09 0-0.17 0.01-0.25 0-0.03 0-0.06 0.01-0.09 0.01-0.11 0.03-0.21 0.05-0.32 0.05-0.27 0.14-0.53 0.27-0.78 0.03-0.06 0.06-0.12 0.1-0.18 0.28-0.5 0.69-0.91 1.19-1.19 0.06-0.04 0.12-0.07 0.18-0.1 0.25-0.13 0.51-0.22 0.78-0.27 0.11-0.02 0.21-0.04 0.32-0.05 0.03-0.01 0.06-0.01 0.09-0.01 0.08-0.01 0.16-0.01 0.25-0.01 0.22 0 0.43 0.02 0.64 0.06s0.42 0.11 0.61 0.19c1.19 0.5 2 1.68 2 3z"/>
</svg>

<svg width="24" height="24" viewBox="0 0 24 24"  xmlns="http://www.w3.org/2000/svg">
<path opacity="0.4" d="M16.31 20.15C16.27 19.93 16.25 19.72 16.25 19.5C16.25 19.41 16.25 19.33 16.26 19.25H7.74C7.75 19.33 7.75 19.41 7.75 19.5C7.75 19.72 7.73 19.93 7.69 20.14C7.65 20.35 7.58 20.56 7.5 20.75H16.5C16.41 20.56 16.35 20.36 16.31 20.15ZM3.86 7.69C3.65 7.65 3.44 7.58 3.25 7.5V16.5C3.44 16.41 3.64 16.35 3.85 16.31C4.07 16.27 4.28 16.25 4.5 16.25C4.59 16.25 4.67 16.25 4.75 16.26V7.74C4.67 7.75 4.59 7.75 4.5 7.75C4.28 7.75 4.07 7.73 3.86 7.69ZM20.15 7.69C19.93 7.73 19.72 7.75 19.5 7.75C19.41 7.75 19.33 7.75 19.25 7.74V16.26C19.33 16.25 19.41 16.25 19.5 16.25C19.72 16.25 19.93 16.27 20.14 16.31C20.35 16.35 20.56 16.42 20.75 16.5V7.5C20.56 7.59 20.36 7.65 20.15 7.69ZM16.5 3.25H7.5C7.59 3.44 7.65 3.64 7.69 3.85C7.73 4.07 7.75 4.28 7.75 4.5C7.75 4.59 7.75 4.67 7.74 4.75H16.26C16.25 4.67 16.25 4.59 16.25 4.5C16.25 4.28 16.27 4.07 16.31 3.86C16.35 3.65 16.42 3.44 16.5 3.25Z" />
<path d="M7.75 4.5C7.75 4.59 7.75 4.67 7.74 4.75C7.72 5.01 7.67 5.25 7.59 5.49C7.57 5.58 7.53 5.68 7.49 5.77C7.47 5.82 7.44 5.88 7.41 5.94C7.38 6 7.35 6.06 7.31 6.12C7.03 6.62 6.62 7.03 6.12 7.31C6.06 7.35 6 7.38 5.94 7.41C5.88 7.44 5.82 7.47 5.77 7.49C5.68 7.53 5.58 7.57 5.49 7.59C5.25 7.67 5.01 7.72 4.75 7.74C4.67 7.75 4.59 7.75 4.5 7.75C4.28 7.75 4.07 7.73 3.86 7.69C3.65 7.65 3.44 7.58 3.25 7.5C2.06 7 1.25 5.82 1.25 4.5C1.25 2.71 2.71 1.25 4.5 1.25C5.83 1.25 7 2.06 7.5 3.25C7.59 3.44 7.65 3.64 7.69 3.85C7.73 4.07 7.75 4.28 7.75 4.5Z" />
<path d="M22.75 4.5C22.75 5.83 21.94 7 20.75 7.5C20.56 7.59 20.36 7.65 20.15 7.69C19.93 7.73 19.72 7.75 19.5 7.75C19.41 7.75 19.33 7.75 19.25 7.74C18.98 7.72 18.73 7.67 18.48 7.58C18.4 7.56 18.31 7.53 18.23 7.49C18.17 7.47 18.12 7.44 18.06 7.41C18 7.38 17.94 7.35 17.88 7.31C17.38 7.03 16.97 6.62 16.69 6.12C16.65 6.06 16.62 6 16.59 5.94C16.56 5.88 16.53 5.83 16.51 5.77C16.47 5.69 16.44 5.6 16.42 5.52C16.33 5.27 16.28 5.02 16.26 4.75C16.25 4.67 16.25 4.59 16.25 4.5C16.25 4.28 16.27 4.07 16.31 3.86C16.35 3.65 16.42 3.44 16.5 3.25C17 2.06 18.18 1.25 19.5 1.25C21.29 1.25 22.75 2.71 22.75 4.5Z" />
<path d="M7.75 19.5C7.75 19.72 7.73 19.93 7.69 20.14C7.65 20.35 7.58 20.56 7.5 20.75C7 21.94 5.82 22.75 4.5 22.75C2.71 22.75 1.25 21.29 1.25 19.5C1.25 18.17 2.06 17 3.25 16.5C3.44 16.41 3.64 16.35 3.85 16.31C4.07 16.27 4.28 16.25 4.5 16.25C4.59 16.25 4.67 16.25 4.75 16.26C5 16.28 5.24 16.33 5.47 16.4C5.55 16.42 5.64 16.45 5.72 16.49C5.79 16.52 5.86 16.55 5.94 16.59C6 16.62 6.06 16.65 6.12 16.69C6.62 16.97 7.03 17.38 7.31 17.88C7.35 17.94 7.38 18 7.41 18.06C7.45 18.14 7.48 18.21 7.51 18.28C7.55 18.36 7.58 18.45 7.6 18.53C7.67 18.76 7.72 19 7.74 19.25C7.75 19.33 7.75 19.41 7.75 19.5Z" />
<path d="M22.75 19.5C22.75 21.29 21.29 22.75 19.5 22.75C18.17 22.75 17 21.94 16.5 20.75C16.41 20.56 16.35 20.36 16.31 20.15C16.27 19.93 16.25 19.72 16.25 19.5C16.25 19.41 16.25 19.33 16.26 19.25C16.26 19.22 16.26 19.19 16.27 19.16C16.28 19.05 16.3 18.95 16.32 18.84C16.37 18.57 16.46 18.31 16.59 18.06C16.62 18 16.65 17.94 16.69 17.88C16.97 17.38 17.38 16.97 17.88 16.69C17.94 16.65 18 16.62 18.06 16.59C18.31 16.46 18.57 16.37 18.84 16.32C18.95 16.3 19.05 16.28 19.16 16.27C19.19 16.26 19.22 16.26 19.25 16.26C19.33 16.25 19.41 16.25 19.5 16.25C19.72 16.25 19.93 16.27 20.14 16.31C20.35 16.35 20.56 16.42 20.75 16.5C21.94 17 22.75 18.18 22.75 19.5Z" />
</svg>
